X:61
T:Trip to the Camps. JJo8.061
B:J.Johnson Choice Collection Vol 8 1758
Z:vmp.Simon Wilson 2013 www.village-music-project.org.uk
M:6/8
L:1/8
Q:3/8=110
K:A
|:E|EAc cAe|ecaa2e|f/g/af ecA|dcBc2E|
EAc cAe|f^dB a2a|gbg fe^d|eBGE2:|
|:E|EGBe2E|EGBd2E|EGB efg|aecB2e|
f/g/af ecA|B/c/dB cde|f/g/af ecA|dcBA2:|
